!!!!SEGMENT: pl-cz--iii-370--001-005_krogulski-jozef-wladyslaw--msza-c-offertorium.krn
!!!cenid: 18xx:942
!!!COM: Krogulski, Józef Władysław
!!!COM-rismid: pe30001797
!!!CDT: 1815/10/04-1842/01/09
!!!CNT: Polish
!!!OPR: Msza C
!!!OTL: Offertorium
!!!OMV: 005
!!!PDT:
!!!AGN: Sacred; Mass
!!!SMS-siglum: PL-CZ
!!!SMS-shelfmark: III-370
!!!SMS-shelfwork: 001-005 M
!!!SMS-variant:
!!!SMS-altvar:
!!!NIFC-rismid: 300000646
!!!URL-scan: http://repozytorium.nifc.pl/skany/pl-cz-nut--iii-370
!!!ONB-nifc: UWAGA: części Mszy: Kyrie, Gloria, Andante przed Ewangelią, Credo, Offertorium, Sanctus, Benedictus, Agnus, Na Benedykcyią
!!!key: G
**kern	**text	**dynam	**kern	**text	**dynam	**kern	**text	**dynam	**kern	**kern	**dynam
*group2	*	*	*group2	*	*	*group2	*	*	*group1	*group1	*
*part4	*part4	*part4	*part3	*part3	*part3	*part2	*part2	*part2	*part1	*part1	*part1
*staff5	*staff5	*	*staff4	*staff4	*	*staff3	*staff3	*	*staff2	*staff1	*
*I"Bas	*	*	*I"Spiew Drugi	*	*	*I"Spiew Pierwszy	*	*	*I"Organ	*	*
*Ibass	*	*	*Isoprn	*	*	*Isoprn	*	*	*Iorgan	*Iorgan	*
*ICvox	*	*	*ICvox	*	*	*ICvox	*	*	*ICklav	*ICklav	*
*IGcoro	*	*	*IGcoro	*	*	*IGcoro	*	*	*IGacmp	*IGacmp	*
*I'[B]	*	*	*I'[S 2]	*	*	*I'[S 1]	*	*	*I'[Org]	*	*
*clefF4	*	*	*clefG2	*	*	*clefG2	*	*	*clefF4	*clefG2	*
*k[f#]	*	*	*k[f#]	*	*	*k[f#]	*	*	*k[f#]	*k[f#]	*
*G:	*	*	*G:	*	*	*G:	*	*	*G:	*G:	*
*M3/4	*	*	*M3/4	*	*	*M3/4	*	*	*M3/4	*M3/4	*
!LO:TX:t=P:problem=all\right&colon; global	!	!	!LO:TX:t=P:problem=all\right&colon; global	!	!	!LO:TX:t=P:problem=all\right&colon; global	!	!	!LO:TX:t=P:problem=all\right&colon; global	!LO:TX:t=P:problem=all\right&colon; global	!
!LO:TX:a:B:t=allegro	!	!	!LO:TX:a:B:t=allegro	!	!	!	!	!	!	!LO:TX:a:B:t=allegro	!
4r	.	.	8r	.	.	8r	.	.	4ryy	(>8dd\L	.
.	.	.	4r	.	.	4r	.	.	.	8gg\	.
8r	.	.	.	.	.	.	.	.	8ryy	8aa\J)	.
=1	=1	=1	=1	=1	=1	=1	=1	=1	=1	=1	=1
*	*	*	*	*	*	*	*	*	*2\right	*2\right	*
*	*	*	*	*	*	*	*	*	*tremolo	*tremolo	*
!LO:TX:a:t=23	!	!	!LO:TX:a:t=23	!	!	!LO:TX:a:t=3	!	!	!	!	!
0.r	.	.	0.r	.	.	1.r	.	.	8G\L 8B	4.bb\	.
.	.	.	.	.	.	.	.	.	8d\	.	.
.	.	.	.	.	.	.	.	.	8G\ 8B	.	.
.	.	.	.	.	.	.	.	.	8d\J	(>8bb\L	.
*	*	*	*	*	*	*	*	*	*Xtremolo	*Xtremolo	*
.	.	.	.	.	.	.	.	.	8A\L 8c	8ccc\	.
.	.	.	.	.	.	.	.	.	8d\J	8ff#\J)	.
=2-	=2	=2	=2-	=2	=2	=2-	=2	=2	=2	=2	=2
*	*	*	*	*	*	*	*	*	*clefG2	*	*
*	*	*	*	*	*	*	*	*	*tremolo	*	*
.	.	.	.	.	.	.	.	.	8B/L 8d	8gg\L	.
.	.	.	.	.	.	.	.	.	8g/	8aa\	.
.	.	.	.	.	.	.	.	.	8B/ 8d	8bb\	.
.	.	.	.	.	.	.	.	.	8g/J	8ff#\	.
*	*	*	*	*	*	*	*	*	*Xtremolo	*	*
.	.	.	.	.	.	.	.	.	.	8qaa/	.
.	.	.	.	.	.	.	.	.	8c/L 8e	8gg\	.
.	.	.	.	.	.	.	.	.	8g/J	8ee\J	.
=3-	=3	=3	=3-	=3	=3	=3-	=3	=3	=3	=3	=3
*	*	*	*	*	*	*	*	*	*^	*	*
.	.	.	.	.	.	2.r	.	.	(<8B/L 8d	2ryy	(>8ee\L	.
.	.	.	.	.	.	.	.	.	8g/J)	.	8dd\	.
*	*	*	*	*	*	*	*	*	*clefF4	*	*	*
.	.	.	.	.	.	.	.	.	(>8F#\L 8A	.	8cc\	.
.	.	.	.	.	.	.	.	.	8G\J) 8B	.	8b\J	.
.	.	.	.	.	.	.	.	.	8E/L	4C\	16a\LL	.
.	.	.	.	.	.	.	.	.	.	.	16b\	.
.	.	.	.	.	.	.	.	.	8A/J	.	16cc\	.
.	.	.	.	.	.	.	.	.	.	.	16ee\JJ)	.
=4-	=4	=4	=4-	=4	=4	=4	=4	=4	=4	=4	=4	=4
!	!	!	!	!	!	!LO:TX:a:i:t=ſolo Dolc	!	!	!	!	!	!
.	.	.	.	.	.	4r	.	.	8G/L	4D\	8.g/L	.
.	.	.	.	.	.	.	.	.	8B/J	.	.	.
.	.	.	.	.	.	.	.	.	.	.	32a/LL	.
.	.	.	.	.	.	.	.	.	.	.	32g/JJJ	.
.	.	.	.	.	.	4r	.	.	16A\	16D\	16f#/	.
.	.	.	.	.	.	.	.	.	16r	16ryy	16r	.
.	.	.	.	.	.	.	.	.	8r	8ryy	8r	.
.	.	.	.	.	.	8dd\	U	.	4r	4ryy	4r	.
.	.	.	.	.	.	8cc\	nog	.	.	.	.	.
*	*	*	*	*	*	*	*	*	*v	*v	*	*
=5-	=5	=5	=5-	=5	=5	=5	=5	=5	=5	=5	=5
!	!	!	!	!	!	!	!	!LO:HP:a	!	!	!
0.r	.	.	0.r	.	.	4b\	ſwię-	<	2.GG/ 2.G	(<8g/L 8b	.
.	.	.	.	.	.	.	.	.	.	8d/	.
.	.	.	.	.	.	4cc\	-tych	.	.	8a/ 8cc	.
.	.	.	.	.	.	.	.	.	.	8d/	.
.	.	.	.	.	.	4dd\	oł-	[	.	8b/ 8dd	.
.	.	.	.	.	.	.	.	.	.	8g/J)	.
=6-	=6	=6	=6-	=6	=6	=6	=6	=6	=6	=6	=6
*	*	*	*	*	*	*2\right	*	*	*	*tremolo	*
!	!	!	!	!	!	!LO:TX:t=P:problem:problem=diminuendolike accent	!	!	!	!	!
.	.	.	.	.	.	2ee\^>	-ta-	.	2.CC/ 2.C	(<8cc/L 8ee	.
.	.	.	.	.	.	.	.	.	.	8g/	.
.	.	.	.	.	.	.	.	.	.	8cc/ 8ee	.
.	.	.	.	.	.	.	.	.	.	8g/J)	.
*	*	*	*	*	*	*	*	*	*	*Xtremolo	*
.	.	.	.	.	.	4cc\	-rzow	.	.	8a/L 8cc	.
.	.	.	.	.	.	.	.	.	.	8e/J	.
!	!	!	!	!	!	!	!	!	!LO:LB:g=original	!LO:LB:g=original	!
=7-	=7	=7	=7-	=7	=7	=7	=7	=7	=7	=7	=7
.	.	.	.	.	.	4.b\	twych	.	2.DD/ 2.D	(<8g/L 8b	.
.	.	.	.	.	.	.	.	.	.	8d/	.
.	.	.	.	.	.	.	.	.	.	8g/ 8b	.
.	.	.	.	.	.	8a\	u-	.	.	8f#/ 8a	.
!	!	!	!	!	!	!LO:TX:t=P:problem:problem=diminuendolike accent	!	!	!	!	!
.	.	.	.	.	.	8.dd\^>	-po-	.	.	8b/ 8dd	.
.	.	.	.	.	.	.	.	.	.	8a/J) 8cc	.
.	.	.	.	.	.	16cc\	-ko-	.	.	.	.
=8-	=8	=8	=8-	=8	=8	=8	=8	=8	=8	=8	=8
.	.	.	.	.	.	4cc\	-rze-	.	2.GG/ 2.G	(<8a/L 8cc	.
.	.	.	.	.	.	.	.	.	.	8d/J	.
*	*	*	*	*	*	*	*	*	*	*tremolo	*
.	.	.	.	.	.	8b\	-ni	.	.	8g/L 8b	.
!	!	!	!	!	!	!	!	!LO:DY:a:rj:t=fo	!	!	!
.	.	.	.	.	.	8r	.	f	.	8d/	.
.	.	.	.	.	.	4b\	o-	.	.	8g/ 8b	.
.	.	.	.	.	.	.	.	.	.	8d/J)	.
*	*	*	*	*	*	*	*	*	*	*Xtremolo	*
=9-	=9	=9	=9-	=9	=9	=9	=9	=9	=9	=9	=9
0.r	.	.	0.r	.	.	4.a/	-fia-	.	2.FF#/ 2.F#	(<8a/L	.
.	.	.	.	.	.	.	.	.	.	8d/	.
.	.	.	.	.	.	.	.	.	.	8a/	.
.	.	.	.	.	.	8b/	-ru-	.	.	8b/	.
!	!	!	!	!	!	!LO:LB:g=original	!	!	!	!	!
.	.	.	.	.	.	8cc\	-iem	.	.	8cc#X/	.
.	.	.	.	.	.	8dd\	ci	.	.	8dd/J)	.
=10-	=10	=10	=10-	=10	=10	=10	=10	=10	=10	=10	=10
.	.	.	.	.	.	4dd\	Bo-	.	2.EE/ 2.E	(>8g\L 8dd	.
.	.	.	.	.	.	.	.	.	.	8e\	.
.	.	.	.	.	.	4g/	-że	.	.	8g\	.
.	.	.	.	.	.	.	.	.	.	8e\	.
.	.	.	.	.	.	8ee\L	dar	.	.	8g\ 8ee	.
.	.	.	.	.	.	8dd\J	.	.	.	8b\J) 8dd	.
=11-	=11	=11	=11-	=11	=11	=11	=11	=11	=11	=11	=11
.	.	.	.	.	.	8cc#X\L	chle-	.	2.AA\ 2.A	8a\L 8cc#X	.
.	.	.	.	.	.	8b\J	.	.	.	8g#X\ 8b	.
.	.	.	.	.	.	4cc#\	-ba	.	.	8a\ 8cc#	.
.	.	.	.	.	.	.	.	.	.	8e\	.
.	.	.	.	.	.	4ee\	i	.	.	8cc#\ 8ee	.
.	.	.	.	.	.	.	.	.	.	8gn\J	.
=12-	=12	=12	=12-	=12	=12	=12	=12	=12	=12	=12	=12
.	.	.	.	.	.	4ee\	wi-	.	4AA\ 4A	8cc#X\L 8ee	.
.	.	.	.	.	.	.	.	.	.	8g\J	.
.	.	.	.	.	.	16dd\	-na	.	16D\	16f#\ 16dd	.
.	.	.	.	.	.	16r	.	.	16r	16r	.
!	!	!	!	!	!	!LO:TX:a:i:t=con tenerezza	!	!	!	!	!
.	.	.	.	.	.	8dd\	kto-	.	8r	8r	.
.	.	.	.	.	.	8ee\	-ry	.	4r	4r	.
.	.	.	.	.	.	8dd\	się	.	.	.	.
!	!	!	!	!	!	!	!	!	!LO:PB:g=original	!LO:PB:g=original	!
=13-	=13	=13	=13-	=13	=13	=13	=13	=13	=13	=13	=13
0.r	.	.	0.r	.	.	(>4ccn\	wkrot-	.	2.DD/ [>2.F#	(<8a/L 8ccn	.
.	.	.	.	.	.	.	.	.	.	8d/	.
.	.	.	.	.	.	4a\	.	.	.	8f#/ 8a	.
.	.	.	.	.	.	.	.	.	.	8d/	.
.	.	.	.	.	.	8b\)	.	.	.	8cc/ 8ee	.
.	.	.	.	.	.	8cc\	-ce	.	.	8b/J) 8dd	.
=14-	=14	=14	=14-	=14	=14	=14	=14	=14	=14	=14	=14
!	!	!	!	!	!	!	!	!	!	!LO:TX:t=P:problem=głosy się nie pokrywały (brak zapisanego taktu)	!
.	.	.	.	.	.	(>4dd\	slo-	.	2.ryy	2.ryy	.
.	.	.	.	.	.	4a\)	.	.	.	.	.
!	!	!	!	!	!	!LO:LB:g=original	!	!	!	!	!
.	.	.	.	.	.	8cc\	-wy	.	.	.	.
.	.	.	.	.	.	8dd\	ka-	.	.	.	.
=15-	=15	=15	=15-	=15	=15	=15	=15	=15	=15	=15	=15
.	.	.	.	.	.	(>4dd\	-pła-	.	2.DD/_< 2.F#_>	(<8b/L 8dd	.
.	.	.	.	.	.	.	.	.	.	8d/	.
.	.	.	.	.	.	4b\)	.	.	.	8f#/ 8a	.
.	.	.	.	.	.	.	.	.	.	8d/	.
.	.	.	.	.	.	8ee\	-na	.	.	8g/ 8b	.
.	.	.	.	.	.	8dd\	za-	.	.	8a/J) 8cc	.
=16-	=16	=16	=16-	=16	=16	=16	=16	=16	=16	=16	=16
.	.	.	.	.	.	4cc\	-mie-	.	2.DD/_< 2.F#_>	(<8a/L 8cc	.
.	.	.	.	.	.	.	.	.	.	8d/	.
.	.	.	.	.	.	4a\	-ni	.	.	8f#/ 8a	.
.	.	.	.	.	.	.	.	.	.	8d/	.
.	.	.	.	.	.	8b\	w praw-	.	.	8g/ 8b	.
.	.	.	.	.	.	8cc\	-dzi	.	.	8a/J) 8cc	.
=17-	=17	=17	=17-	=17	=17	=17	=17	=17	=17	=17	=17
0.r	.	.	0.r	.	.	4dd\	.	.	(<(>2.DD/] 2.F#]	(<8b/L 8dd	.
.	.	.	.	.	.	.	.	.	.	8d/J	.
*	*	*	*	*	*	*	*	*	*	*tremolo	*
.	.	.	.	.	.	8b\	.	.	.	8g/L 8b	.
.	.	.	.	.	.	8r	.	.	.	8d/	.
!	!	!	!	!	!	!	!	!LO:DY:a:rj	!	!	!
.	.	.	.	.	.	4b\	w praw-	f	.	8g/ 8b	.
.	.	.	.	.	.	.	.	.	.	8d/J)	.
*	*	*	*	*	*	*	*	*	*	*Xtremolo	*
=18-	=18	=18	=18-	=18	=18	=18	=18	=18	=18	=18	=18
*	*	*	*	*	*	*	*	*	*	*tremolo	*
.	.	.	.	.	.	4.b\	-dzi-	.	2.GG/)) 2.G	(8g/L 8b	.
.	.	.	.	.	.	.	.	.	.	8d/	.
.	.	.	.	.	.	.	.	.	.	8g/ 8b	.
.	.	.	.	.	.	8b\	-wę	.	.	8d/J	.
*	*	*	*	*	*	*	*	*	*	*Xtremolo	*
.	.	.	.	.	.	8b\	krew	.	.	(8fn/L 8b	.
.	.	.	.	.	.	8b\	i	.	.	8d/J))	.
=19-	=19	=19	=19-	=19	=19	=19	=19	=19	=19	=19	=19
*	*	*	*	*	*	*	*	*	*	*tremolo	*
.	.	.	.	.	.	2cc\	cia-	.	2.CC/ 2.C	(<8g/L 8cc	.
.	.	.	.	.	.	.	.	.	.	8e/	.
.	.	.	.	.	.	.	.	.	.	8g/ 8cc	.
.	.	.	.	.	.	.	.	.	.	8e/J)	.
*	*	*	*	*	*	*	*	*	*	*Xtremolo	*
.	.	.	.	.	.	4ee\	-ło	.	.	(<8g/L 8ee	.
.	.	.	.	.	.	.	.	.	.	8e/J)	.
=20-	=20	=20	=20-	=20	=20	=20	=20	=20	=20	=20	=20
*	*	*	*	*	*	*	*	*	*	*tremolo	*
.	.	.	.	.	.	4dd\	Bo-	.	[<2.DD/ [>2.D	(<8b/L 8dd	.
.	.	.	.	.	.	.	.	.	.	8d/	.
.	.	.	.	.	.	4dd\	-ga	.	.	8b/ 8dd	.
.	.	.	.	.	.	.	.	.	.	8d/J	.
*	*	*	*	*	*	*	*	*	*	*Xtremolo	*
!	!	!	!	!	!	!LO:LB:g=original	!	!	!	!	!
.	.	.	.	.	.	8cc\	Twe-	.	.	8a/L 8cc	.
.	.	.	.	.	.	8dd\	-go	.	.	8b/J) 8dd	.
=21-	=21	=21	=21-	=21	=21	=21	=21	=21	=21	=21	=21
1.r	.	.	1.r	.	.	4cc\	ſy-	.	4DD/] 4D]	(<8a/L 8cc	.
.	.	.	.	.	.	.	.	.	.	8f#/J	.
*	*	*	*	*	*	*	*	*	*	*tremolo	*
.	.	.	.	.	.	8b\	-na	.	4GG/ 4G	8g/L 8b	.
.	.	.	.	.	.	8r	.	.	.	8d/	.
.	.	.	.	.	.	4b\	w praw-	.	4r	8g/ 8b	.
.	.	.	.	.	.	.	.	.	.	8d/J)	.
*	*	*	*	*	*	*	*	*	*	*Xtremolo	*
!	!	!	!	!	!	!	!	!	!LO:LB:g=original	!LO:LB:g=original	!
=22-	=22	=22	=22-	=22	=22	=22	=22	=22	=22	=22	=22
*	*	*	*	*	*	*	*	*	*	*tremolo	*
.	.	.	.	.	.	4.b\	-dzi-	.	2.GG\ 2.G	(<8g/L 8b	.
.	.	.	.	.	.	.	.	.	.	8d/	.
.	.	.	.	.	.	.	.	.	.	8g/ 8b	.
.	.	.	.	.	.	8b\	-wą	.	.	8d/J	.
*	*	*	*	*	*	*	*	*	*	*Xtremolo	*
.	.	.	.	.	.	8b\	krew	.	.	8fn/L 8b	.
.	.	.	.	.	.	8b\	i	.	.	8d/J)	.
=23-	=23	=23	=23-	=23	=23	=23	=23	=23	=23	=23	=23
*	*	*	*	*	*	*	*	*	*	*tremolo	*
2.r	.	.	2.r	.	.	2cc\	cia-	.	2EE/ 2E	(<8g/L 8cc	.
.	.	.	.	.	.	.	.	.	.	8e/	.
.	.	.	.	.	.	.	.	.	.	8g/ 8cc	.
.	.	.	.	.	.	.	.	.	.	8e/J	.
*	*	*	*	*	*	*	*	*	*	*Xtremolo	*
.	.	.	.	.	.	4ee\	-ło	.	4CC/ 4C	8g/L 8ee	.
.	.	.	.	.	.	.	.	.	.	8e/J)	.
=24	=24	=24	=24	=24	=24	=24	=24	=24	=24	=24	=24
*	*	*	*	*	*	*	*	*	*	*tremolo	*
!LO:TX:t=P:problem=brak zapisanej pauzy	!	!	!LO:TX:t=P:problem=brak zapisanej pauzy	!	!	!	!	!	!	!	!
2.ryy	.	.	2.ryy	.	.	4dd\	Bo-	.	[<2.DD/ [>2.D	8b/L 8dd	.
.	.	.	.	.	.	.	.	.	.	8d/	.
.	.	.	.	.	.	4dd\	-ga	.	.	8b/ 8dd	.
.	.	.	.	.	.	.	.	.	.	8d/J	.
*	*	*	*	*	*	*	*	*	*	*Xtremolo	*
.	.	.	.	.	.	8cc\	Twe-	.	.	8a/L 8cc	.
.	.	.	.	.	.	8a/	-go	.	.	8f#/J 8a	.
=25	=25	=25	=25	=25	=25	=25	=25	=25	=25	=25	=25
4r	.	.	4r	.	.	4a/	ſy-	.	4DD/] 4D]	8f#/L 8a	.
.	.	.	.	.	.	.	.	.	.	8c/J	.
4r	.	.	4r	.	.	8g/	-na	.	4GG\ 4G	8B/ 8g	.
.	.	.	.	.	.	8r	.	.	.	8r	.
!	!	!LO:DY:a:rj:t=for	!	!	!LO:DY:a:rj	!LO:TX:a:i:t=Coro	!	!	!	!	!
4G\	Z glę-	f	8b/L	Z glę-	f	8dd\L	Z głę-	.	4GG\ 4G	8b\L 8dd	f
.	.	.	8a/J	.	.	8cc\J	.	.	.	8a\J 8cc	.
=26	=26	=26	=26	=26	=26	=26	=26	=26	=26	=26	=26
4G\	-bo-	.	4.g/	-bo-	.	4.b\	-bo-	.	2.GG\ 2.G	4.g\ 4.b	.
4G\	-kiem	.	.	.	.	.	.	.	.	.	.
.	.	.	8a/	-kiem	.	8cc\	-kiem	.	.	8a\ 8cc	.
!	!	!	!	!	!	!LO:LB:g=original	!	!	!	!	!
8G\	ta-	.	8b/	ta-	.	8dd\	ta-	.	.	4b\ 4dd	.
8G\	-ie-	.	8b/	-ie-	.	8dd\	-ie-	.	.	.	.
=27	=27	=27	=27	=27	=27	=27	=27	=27	=27	=27	=27
4C/	-mni-	.	4cc\	-mni-	.	4ee\	-mni-	.	2.CC/ 2.C	2cc\ 2ee	.
4C/	-cę	.	4cc\	-cę	.	4ee\	-cę	.	.	.	.
4C/	te	.	4a/	tę	.	4cc\	tę	.	.	4a\ 4cc	.
!	!	!	!LO:LB:g=original	!	!	!	!	!	!	!	!
=28	=28	=28	=28	=28	=28	=28	=28	=28	=28	=28	=28
2D/	świę-	.	(<4g/	ſwię-	.	(>4b\	ſwię-	.	[<2.DD/ [>2.D	4g/ 4b	.
.	.	.	4f#/)	.	.	4a\)	.	.	.	4f#/ 4a	.
8D/	-cim	.	8f#/	-cim	.	8dd\	-cim	.	.	8f#\L 8dd	.
8D/	ucz-	.	8a/	ucz-	.	8cc\	ucz-	.	.	8a\J 8cc	.
!LO:LB:g=original	!	!	!	!	!	!	!	!	!	!	!
=29	=29	=29	=29	=29	=29	=29	=29	=29	=29	=29	=29
4D\	-cze-	.	4a/	-cze-	.	4cc\	-cze-	.	4DD/] 4D]	4a\ 4cc	.
8G\	-niem	.	8g/	-niem	.	8b\	-niem	.	4GG\ 4G	4g\ 4b	.
8r	.	.	8r	.	.	8r	.	.	.	.	.
4r	.	.	8g/	któ-	.	8b\	kto-	.	4GG\ 4G	4g\ 4b	.
.	.	.	8g/	-ra-	.	8b\	-ra	.	.	.	.
!	!	!	!	!	!	!	!	!	!LO:LB:g=original	!LO:LB:g=original	!
=30	=30	=30	=30	=30	=30	=30	=30	=30	=30	=30	=30
8D\	kto-	.	(<4.f#/	-w-no	.	(<4.a/	w no-	.	2.D\	4.f#/ 4.a	.
8D\	-ra	.	.	.	.	.	.	.	.	.	.
4D\	w no-	.	.	.	.	.	.	.	.	.	.
.	.	.	8g/)	.	.	8b/)	.	.	.	8f#\L 8a	.
8D\	-wym	.	8e/	-wym	.	8cc#X\	-wym	.	.	8e\ 8cc#X	.
8D\	za-	.	8f#/	za-	.	8dd\	za-	.	.	8f#\J 8dd	.
=31	=31	=31	=31	=31	=31	=31	=31	=31	=31	=31	=31
4E\	-ko-	.	4g/	-ko-	.	4b\	-ko-	.	[>2E\	4g\ 4cc	.
4E\	-nie	.	4g/	-nie	.	4g/	-nie	.	.	4g\	.
8E\	speł-	.	8g/	ſpeł-	.	8ee\	speł-	.	8E\L]	8g\L 8ee	.
8G\	-nia	.	8b/	-nia	.	8dd\	-nia	.	8G\J	8b\J 8dd	.
!	!	!	!	!	!	!LO:LB:g=original	!	!	!	!	!
=32	=32	=32	=32	=32	=32	=32	=32	=32	=32	=32	=32
*2\right	*	*	*	*	*	*	*	*	*	*	*
2A\	za-	.	8a/L	za-	.	(8cc#X\L	za-	.	2A\	8a\L 8cc#X	.
.	.	.	(<8g#X/J	.	.	8b\J	.	.	.	8g#X\J 8b	.
.	.	.	4a/)	.	.	4cc#\)	.	.	.	4a\ 4cc#	.
4AA/	-kon	.	4gn/	-kon	.	4ee\	-kon	.	4AA/	4gn\ 4cc# 4ee	.
!	!	!	!LO:LB:g=original	!	!	!	!	!	!	!	!
=33	=33	=33	=33	=33	=33	=33	=33	=33	=33	=33	=33
4AA/	sta-	.	4g/	ſta-	.	4ee\	sta-	.	4AA/	8g\L 8cc#X 8ee	.
.	.	.	.	.	.	.	.	.	.	8f#\ 8dd	.
16D/	-ry	.	16f#/	-ry	.	16dd\	-ry	.	4D/	8b\ 8dd	.
16r	.	.	16r	.	.	16r	.	.	.	.	.
8r	.	.	8r	.	.	8r	.	.	.	8ccn\J 8ee	.
4r	.	.	8cc\	ta-	.	8ee\	ta-	.	4r	4b\ 4dd	.
.	.	.	8b\	-ie-	.	8dd\	-iem-	.	.	.	.
!LO:LB:g=original	!	!	!	!	!	!	!	!	!	!	!
=34	=34	=34	=34	=34	=34	=34	=34	=34	=34	=34	=34
8D/	Ta-	.	(<4a/	-mni-	.	(>4cc\	-ni-	.	4.D\	4a\ 4cc	.
8D/	-iem-	.	.	.	.	.	.	.	.	.	.
8D/L	-ni-	.	4f#/)	.	.	4a\)	.	.	.	4f#\ 4a	.
8C/J	.	.	.	.	.	.	.	.	8C/L	.	.
8BB/	-cę	.	8g/	-cę	.	8b\	-cę	.	8BB/	8g\L 8b	.
8AA/	co	.	8a/	co	.	8cc\	co	.	8AA/J	8a\J 8cc	.
=35	=35	=35	=35	=35	=35	=35	=35	=35	=35	=35	=35
2.GG/	grun-	.	4b/	grun-	.	4dd\	grun-	.	2.GG/	4b\ 4dd	.
.	.	.	4g/	-tem	.	4b\	-tem	.	.	4g\ 4b	.
.	.	.	8cc/	iest	.	8ee\	iest	.	.	8cc\L 8ee	.
.	.	.	8b/	Chry-	.	8dd\	Chris-	.	.	8b\J 8dd	.
=36	=36	=36	=36	=36	=36	=36	=36	=36	=36	=36	=36
4D\	-tem	.	(<4a/	-stu-	.	(>4cc\	-tus-	.	4.D/	4a\ 4cc	.
8D\	iest	.	4f#/	.	.	4a\	.	.	.	4f#\ 4a	.
8C/	Chrys-	.	.	.	.	.	.	.	8C/L	.	.
8BB/	-tu-	.	8g/)	.	.	8b\)	.	.	8BB/	8g\L 8b	.
8AA/	-sa	.	8a/	-sa	.	8cc\	-sa	.	8AA/J	8a\J 8cc	.
=37	=37	=37	=37	=37	=37	=37	=37	=37	=37	=37	=37
4GG/	wia-	.	4b/	wia-	.	4dd\	wia-	.	2GG/	4b\ 4dd	.
!	!	!	!	!	!	!LO:LB:g=original	!	!	!	!	!
8GG/	-ry	.	8g/	-ry	.	8b\	-ry	.	.	4g\ 4b	.
8r	.	.	8r	.	.	8r	.	.	.	.	.
4G\	Rę-	.	4g/	Rę-	.	4b\	Re-	.	4G\	4g\ 4b	.
!	!	!	!LO:LB:g=original	!	!	!	!	!	!LO:LB:g=original	!LO:LB:g=original	!
=38	=38	=38	=38	=38	=38	=38	=38	=38	=38	=38	=38
4.G\	-koj-	.	4.g/	-koj-	.	4.b\	-koj-	.	2.G\	2.g/ 2.b	.
8G\	-mą.	.	8g/	-mią	.	8b\	-mią	.	.	.	.
!LO:LB:g=original	!	!	!	!	!	!	!	!	!	!	!
8G\	łas-	.	8g/	łas-	.	8b\	łas-	.	.	.	.
8G\	-ki	.	8g/	-ki	.	8b\	-ki	.	.	.	.
=39	=39	=39	=39	=39	=39	=39	=39	=39	=39	=39	=39
4E\	Nie-	.	4g/	Nie-	.	4cc\	nie-	.	2E\	2g\ 2cc	.
4E\	-bios	.	4g/	-bios	.	4cc\	-bios	.	.	.	.
4C/	i	.	4cc\	i	.	4ee\	i	.	4C\	4cc\ 4ee	.
=40	=40	=40	=40	=40	=40	=40	=40	=40	=40	=40	=40
*	*	*	*2\right	*	*	*	*	*	*	*	*
2D\	świa-	.	2b\	ſwia-	.	2dd\	ſwia-	.	2.D\	2b\ 2dd	.
8D\	-ta	.	8.a\	-ta	.	8cc\	-ta	.	.	8a\L 8cc	.
8D\	zba-	.	.	.	.	8dd\	zba-	.	.	8b\J 8dd	.
.	.	.	16b\	zba-	.	.	.	.	.	.	.
=41	=41	=41	=41	=41	=41	=41	=41	=41	=41	=41	=41
4D\	-wie-	.	4a/	-wie-	.	4cc\	-wie-	.	4D\	4a\ 4cc	.
8G\	-niem	.	8g/	-niem	.	8b\	-niem	.	4G\	4g\ 4b	.
8r	.	.	8r	.	.	8r	.	.	.	.	.
4G\	Rę-	.	4g/	Rę-	.	4b\	Rę-	.	4G\	4g\ 4b	.
=42	=42	=42	=42	=42	=42	=42	=42	=42	=42	=42	=42
4.G\	-koj-	.	4.g/	-koj-	.	4.b\	-koj-	.	4.G\	2g\ 2b	.
8Fn\	-mią	.	8g/	-mą	.	8b\	-mą	.	8Fn\L	.	.
8E\	łas-	.	8g/	łas-	.	8b\	łas-	.	8E\	8g/L 8b	.
8D\	-ki	.	8fn/	-ki	.	8b\	-ki	.	8D\J	8fn/J 8b	.
=43	=43	=43	=43	=43	=43	=43	=43	=43	=43	=43	=43
4C/	Nie-	.	4e/	nie-	.	4cc\	nie-	.	4C/	4e\ 4cc	.
4E\	-bios	.	4g/	-bios	.	4cc\	-bios	.	4E/	4g\ 4cc	.
!LO:LB:g=original	!	!	!LO:LB:g=original	!	!	!	!	!	!	!	!
4C/	i	.	4cc\	i	.	4ee\	i	.	4C/	4cc\ 4ee	.
=44	=44	=44	=44	=44	=44	=44	=44	=44	=44	=44	=44
2D\	świa-	.	2b\	świa-	.	2dd\	ſwia-	.	[>2.D\	2b\ 2dd	.
8D\	-ta	.	8a/	-ta	.	8cc\	-ta	.	.	8a\L 8cc	.
8D\	zba-	.	8f#X/	zba-	.	8a\	zba-	.	.	8f#X\J 8a	.
=45	=45	=45	=45	=45	=45	=45	=45	=45	=45	=45	=45
4D\	-wie-	.	4f#/	-wie-	.	4a/	-wie-	.	4D\]	4f#/ 4a	.
4G\	-niem	.	4g/	-niem	.	4g/	-niem	.	4G\	4g/	.
4r	.	.	4r	.	.	4r	.	.	4r	4r	.
=46	=46	=46	=46	=46	=46	=46	=46	=46	=46	=46	=46
2.D\	a-	.	2.f#/	a-	.	2.a/	a-	.	2.D\	2.c/ 2.f# 2.a	.
=47	=47	=47	=47	=47	=47	=47	=47	=47	=47	=47	=47
4G\	-men	.	4g/	-men	.	4g/	-[me]n	.	4G\	4B/ 4g	.
4r	.	.	4r	.	.	4r	.	.	4r	4r	.
4r	.	.	4r	.	.	4r	.	.	4r	4r	.
!	!	!	!	!	!	!LO:LB:g=original	!	!	!	!	!
=48	=48	=48	=48	=48	=48	=48	=48	=48	=48	=48	=48
2.D\	a-	.	2.f#/	a-	.	2.dd\	a-	.	2.D\ 2.c	2.f#\ 2.a\ 2.dd\	.
=49	=49	=49	=49	=49	=49	=49	=49	=49	=49	=49	=49
4G\	-men	.	4g/	-men	.	4g/	-[men]	.	4G\ 4B	4g/	.
4r	.	.	4r	.	.	4r	.	.	4r	4r	.
4r	.	.	4r	.	.	4r	.	.	4r	4r	.
==	==	==	==	==	==	==	==	==	==	==	==
*-	*-	*-	*-	*-	*-	*-	*-	*-	*-	*-	*-
!!!system-decoration: {(g1)}[(g2)]
!!!AIN: 1 bass 1 organ 2 soprn
!!!ENC: Tomasz Grocholski
!!!END: 2020-08-30
!!!EED: Jędrzej Mróz
!!!ESR: 2021-11-08
!!!RDF**kern: > = above
!!!RDF**kern: < = below
